src/assets/tokens/bex-swbera.svg

<svg width="128" height="128" viewBox="0 0 128 128" fill="none" xmlns="http://www.w3.org/2000/svg">
<g clip-path="url(#clip0_19038_64068)">
<path d="M64 128C99.346 128 128 99.346 128 64C128 28.654 99.346 0 64 0C28.654 0 0 28.654 0 64C0 99.346 28.654 128 64 128Z" fill="#0F1016"/>
<g clip-path="url(#clip1_19038_64068)">
<path d="M83.5281 77.8481V73.0436C86.4763 72.0293 88.6231 68.8797 88.6231 65.1518C88.6231 61.4238 86.4763 58.2653 83.5281 57.2599V52.4554C86.3045 51.5034 88.375 48.6474 88.604 45.1953H85.2265V46.6634C85.2265 47.7933 84.5397 48.7898 83.5281 49.288V48.6029C83.5281 47.5976 82.6505 46.779 81.5725 46.779H81.4007C80.3227 46.779 79.4447 47.5976 79.4447 48.6029V49.288C78.4335 48.7898 77.7464 47.8022 77.7464 46.6634V45.1953H74.3692C74.5982 48.6474 76.6684 51.5034 79.4447 52.4554V57.2599C76.5061 58.2653 74.3501 61.4149 74.3501 65.1518C74.3501 68.8886 76.4966 72.0382 79.4447 73.0436V77.8481C76.6684 78.8001 74.5982 81.6562 74.3692 85.1081H77.7464V83.6401C77.7464 82.5102 78.4335 81.5136 79.4447 81.0155V81.7006C79.4447 82.7061 80.3227 83.5245 81.4007 83.5245H81.5725C82.6505 83.5245 83.5281 82.7061 83.5281 81.7006V81.0155C84.5397 81.5136 85.2265 82.5013 85.2265 83.6401V85.1081H88.604C88.375 81.6562 86.3045 78.8001 83.5281 77.8481ZM77.7464 67.2515V63.0431C77.7464 61.9132 78.4335 60.9167 79.4447 60.4184V61.1035C79.4447 62.1089 80.3227 62.9275 81.4007 62.9275H81.5725C82.6505 62.9275 83.5281 62.1089 83.5281 61.1035V60.4184C84.5397 60.9167 85.2265 61.9043 85.2265 63.0431V67.2515C85.2265 68.3814 84.5397 69.3779 83.5281 69.8762V69.1911C83.5281 68.1857 82.6505 67.3672 81.5725 67.3672H81.4007C80.3227 67.3672 79.4447 68.1857 79.4447 69.1911V69.8762C78.4431 69.3779 77.7464 68.3904 77.7464 67.2515Z" fill="white"/>
<path d="M104.251 67.7053V62.5894C107.199 61.5751 109.346 58.4255 109.346 54.6975C109.346 50.9696 107.199 47.8111 104.251 46.8057V45.1953H100.177V46.8057C97.2288 47.82 95.0823 50.9696 95.0823 54.6975C95.0823 58.4255 97.2288 61.584 100.177 62.5894V67.7053C97.2288 68.7195 95.0823 71.8692 95.0823 75.5971C95.0823 79.325 97.2288 82.4835 100.177 83.489V85.0992H104.251V83.489C107.199 82.4746 109.346 79.325 109.346 75.5971C109.346 71.8692 107.199 68.7195 104.251 67.7053ZM98.469 56.7973V52.5889C98.469 51.4589 99.1561 50.4625 100.167 49.9642V50.6493C100.167 51.6547 101.045 52.4732 102.123 52.4732H102.286C103.364 52.4732 104.241 51.6547 104.241 50.6493V49.9642C105.253 50.4625 105.94 51.45 105.94 52.5889V56.7973C105.94 57.9272 105.253 58.9237 104.241 59.4219V58.7369C104.241 57.7315 103.364 56.9129 102.286 56.9129H102.114C101.036 56.9129 100.158 57.7315 100.158 58.7369V59.4219C99.1657 58.9237 98.469 57.9361 98.469 56.7973ZM105.949 77.7057C105.949 78.8357 105.262 79.8322 104.251 80.3304V79.325C104.251 78.3196 103.373 77.5011 102.295 77.5011H102.133C101.055 77.5011 100.177 78.3196 100.177 79.325V80.3304C99.1657 79.8322 98.4786 78.8445 98.4786 77.7057V73.4973C98.4786 72.3674 99.1657 71.3709 100.177 70.8726V71.2374C100.177 72.2428 101.055 73.0614 102.133 73.0614H102.305C103.383 73.0614 104.26 72.2428 104.26 71.2374V70.8726C105.272 71.3709 105.959 72.3585 105.959 73.4973V77.7057H105.949Z" fill="white"/>
<path d="M60.1825 61.0769C60.1443 60.8722 60.0966 60.6765 60.0203 60.4897C60.0489 60.4452 66.3838 52.2152 60.5165 47.126C54.6584 42.0368 47.8175 48.6742 47.7794 48.7098C46.6917 48.3894 45.5945 48.1937 44.5069 48.1047C44.5069 48.1047 44.5069 48.1047 44.4974 48.1047C42.2648 47.7577 39.1354 48.1047 39.1354 48.1047C38.0573 48.1937 36.9697 48.3894 35.8916 48.7008C35.8534 48.6652 29.0126 42.0279 23.1546 47.1171C17.2966 52.2063 23.6221 60.4452 23.6507 60.4808C23.584 60.6765 23.5267 60.8722 23.4885 61.068C22.8589 64.5913 18.5369 65.6767 18.5369 71.8158C18.5369 78.0705 23.0496 82.9995 32.2661 82.9995H36.0442C36.0633 83.0172 37.523 84.9571 40.5379 85.0726C40.5379 85.0726 41.2344 85.1437 42.8372 85.0904C46.0334 85.0904 47.5886 83.035 47.5981 83.0084H51.3762C60.5925 83.0084 65.1053 78.0794 65.1053 71.8247C65.134 65.6945 60.812 64.6002 60.1825 61.0769Z" fill="white"/>
</g>
</g>
<defs>
<clipPath id="clip0_19038_64068">
<rect width="128" height="128" fill="white"/>
</clipPath>
<clipPath id="clip1_19038_64068">
<rect width="91" height="40" fill="white" transform="translate(18.5369 45.1953)"/>
</clipPath>
</defs>
</svg>

<svg xmlns="http://www.w3.org/2000/svg" viewBox="0 0 128 128"><circle cx="64" cy="64" r="64"/><path fill="#fff" d="M83.528 77.848v-4.804c2.948-1.015 5.095-4.164 5.095-7.892s-2.147-6.887-5.095-7.892v-4.805c2.776-.952 4.847-3.808 5.076-7.26h-3.377v1.468c0 1.13-.687 2.127-1.699 2.625v-.685c0-1.005-.878-1.824-1.956-1.824h-.171c-1.078 0-1.956.819-1.956 1.824v.685c-1.011-.498-1.699-1.486-1.699-2.625v-1.468H74.37c.23 3.452 2.3 6.308 5.076 7.26v4.805c-2.939 1.005-5.095 4.155-5.095 7.892s2.147 6.886 5.095 7.892v4.804c-2.777.952-4.847 3.808-5.076 7.26h3.377V83.64c0-1.13.688-2.126 1.699-2.624v.685c0 1.005.878 1.824 1.956 1.824h.172c1.078 0 1.955-.819 1.955-1.824v-.685c1.012.498 1.698 1.485 1.698 2.624v1.468h3.378c-.229-3.452-2.3-6.308-5.076-7.26m-5.782-10.597v-4.208c0-1.13.688-2.126 1.699-2.625v.685c0 1.006.878 1.825 1.956 1.825h.172c1.078 0 1.955-.82 1.955-1.825v-.685c1.012.499 1.698 1.486 1.698 2.625v4.208c0 1.13-.686 2.127-1.698 2.625v-.685c0-1.005-.878-1.824-1.956-1.824h-.171c-1.078 0-1.956.819-1.956 1.824v.685c-1.002-.498-1.699-1.486-1.699-2.625m26.504.454V62.59c2.948-1.014 5.095-4.163 5.095-7.892 0-3.727-2.147-6.886-5.095-7.891v-1.61h-4.074v1.61c-2.948 1.014-5.095 4.164-5.095 7.892 0 3.727 2.147 6.886 5.095 7.891v5.116c-2.948 1.014-5.095 4.164-5.095 7.892s2.147 6.887 5.095 7.892v1.61h4.074v-1.61c2.948-1.014 5.095-4.164 5.095-7.892s-2.147-6.877-5.095-7.892m-5.782-10.908V52.59c0-1.13.687-2.126 1.698-2.625v.685c0 1.006.878 1.824 1.956 1.824h.163c1.078 0 1.955-.818 1.955-1.824v-.685c1.012.498 1.699 1.486 1.699 2.625v4.208c0 1.13-.687 2.127-1.699 2.625v-.685c0-1.006-.877-1.824-1.955-1.824h-.172c-1.078 0-1.956.819-1.956 1.824v.685c-.992-.498-1.689-1.486-1.689-2.625m7.48 20.909c0 1.13-.687 2.126-1.698 2.624v-1.005c0-1.005-.878-1.824-1.956-1.824h-.162c-1.078 0-1.956.819-1.956 1.824v1.005c-1.011-.498-1.698-1.486-1.698-2.624v-4.209c0-1.13.687-2.126 1.698-2.624v.364c0 1.006.878 1.824 1.956 1.824h.172c1.078 0 1.955-.818 1.955-1.824v-.364c1.012.498 1.699 1.486 1.699 2.624v4.209zm-45.766-16.63a3 3 0 0 0-.163-.587c.029-.045 6.364-8.275.496-13.364-5.858-5.09-12.698 1.548-12.737 1.584a16.3 16.3 0 0 0-3.272-.605h-.01c-2.232-.347-5.362 0-5.362 0a16.6 16.6 0 0 0-3.243.596c-.039-.036-6.88-6.673-12.737-1.584s.467 13.328.496 13.364a4.5 4.5 0 0 0-.163.587c-.63 3.523-4.951 4.609-4.951 10.748 0 6.254 4.513 11.183 13.73 11.183h3.777c.02.018 1.479 1.958 4.494 2.074 0 0 .696.07 2.3.017 3.195 0 4.75-2.055 4.76-2.082h3.778c9.217 0 13.73-4.929 13.73-11.183.028-6.13-4.294-7.225-4.923-10.748"/></svg>
